svgs/sharp-regular/box-heart.svg

<svg xmlns="http://www.w3.org/2000/svg" viewBox="0 0 448 512"><!--! Font Awesome Pro 6.6.0 by @fontawesome - https://fontawesome.com License - https://fontawesome.com/license (Commercial License) Copyright 2024 Fonticons, Inc. --><path d="M200 160l0-80L95.2 80 59.6 160 200 160zm188.4 0L352.8 80 248 80l0 80 140.4 0zM48 208l0 224 352 0 0-224L48 208zM64 32l320 0 64 144 0 256 0 48-48 0L48 480 0 480l0-48L0 176 64 32zM224 400l-84.8-74c-22.1-19.3-23.3-53.3-2.5-74.1c19.8-19.8 51.9-19.8 71.8 0L224 267.4l15.5-15.5c19.8-19.8 51.9-19.8 71.8 0c20.8 20.8 19.6 54.8-2.5 74.1L224 400z"/></svg>

<svg xmlns="http://www.w3.org/2000/svg" viewBox="0 0 448 512"><!--! Font Awesome Pro 6.4.2 by @fontawesome - https://fontawesome.com License - https://fontawesome.com/license (Commercial License) Copyright 2023 Fonticons, Inc. --><path d="M200 160V80H95.2L59.6 160H200zm188.4 0L352.8 80H248v80H388.4zM48 208V432H400V208H48zM64 32H384l64 144V432v48H400 48 0V432 176L64 32zM224 400l-84.8-74c-22.1-19.3-23.3-53.3-2.5-74.1c19.8-19.8 51.9-19.8 71.8 0L224 267.4l15.5-15.5c19.8-19.8 51.9-19.8 71.8 0c20.8 20.8 19.6 54.8-2.5 74.1L224 400z"/></svg>
